X:6623
T:The Chief
R:jig
C:Paul S. Cranford
D:The Lighthouse, Cranford Publications
B:The Lighthouse Collection, ISBN 0-9691181-5-5
N:Contacts ...
N:..... Cranford Publications <http://www.cranfordpub.com>
H:Composed for Captain Barna Norton, Jonesport, Me
O:England
L:1/8
Q:288
M:6/8
K:Bb
c|BFD FBd|f=3Deg fdB|cAF ece|dBd cAF|
BFD FBd|f=3Deg fdB|cAF edc|B3 B2:|
|:f|bfd Bdf|edc BAB|cAF ece|
[1dBd c(f/g/a)|bfd Bdf|edc BAB|cAF edc|B3 B2:|
[2dBd cAF|BFD B,Bd|cAc edc|dfB ecA|B3 B2|]


